icons/icn_facebook.svg

<svg width="24" xmlns="http://www.w3.org/2000/svg" height="24" id="screenshot-bfd96ead-884f-806b-8006-9b036d3004dc" viewBox="0 0 24 24" xmlns:xlink="http://www.w3.org/1999/xlink" fill="none" version="1.1"><g id="shape-bfd96ead-884f-806b-8006-9b036d3004dc"><g class="frame-container-wrapper"><g class="frame-container-blur"><g class="frame-container-shadows"><g fill="none"><g class="fills" id="fills-bfd96ead-884f-806b-8006-9b036d3004dc"><rect rx="0" ry="0" x="0" y="0" width="24" height="24" transform="matrix(1, 0, 0, 1, 0, 0)" class="frame-background"/></g><g class="frame-children"><g id="shape-bfd96ead-884f-806b-8006-9b00eedc0541"><g class="fills" id="fills-bfd96ead-884f-806b-8006-9b00eedc0541"><rect rx="4" ry="4" x="0" y="0" transform="matrix(1, 0, 0, 1, 0, 0)" width="24" height="24" style="fill: rgb(0, 0, 0); fill-opacity: 1;"/></g></g><g id="shape-bfd96ead-884f-806b-8006-9b013bf9eb3b"><g class="fills" id="fills-bfd96ead-884f-806b-8006-9b013bf9eb3b"><path d="M9.815478324890137,20.500015258789062L13.305224418640137,20.500015258789062L13.305224418640137,11.927993774414062L15.740527153015137,11.927993774414062L16.000049591064453,9.057754516601562L13.305224418640137,9.057754516601562C13.305224418640137,9.057754516601562,13.305224418640137,7.9862213134765625,13.305224418640137,7.4227447509765625C13.305224418640137,6.7461090087890625,13.444140434265137,6.4786529541015625,14.111132621765137,6.4786529541015625C14.647753715515137,6.4786529541015625,16.000049591064453,6.4786529541015625,16.000049591064453,6.4786529541015625L16.000049591064453,3.5000154972076416C16.000049591064453,3.5000154972076416,14.008593559265137,3.5000154972076416,13.583300590515137,3.5000154972076416C10.986132621765137,3.5000154972076416,9.815478324890137,4.6219635009765625,9.815478324890137,6.7693023681640625C9.815478324890137,8.639663696289062,9.815478324890137,9.057754516601562,9.815478324890137,9.057754516601562L8.000048637390137,9.057754516601562L8.000048637390137,11.964126586914062L9.815478324890137,11.964126586914062L9.815478324890137,20.500015258789062" style="fill-rule: nonzero; stroke: none; stroke-width: 0.133333; fill: rgb(255, 255, 255); fill-opacity: 1;"/></g></g></g></g></g></g></g></g></svg>

<svg fill="none" viewBox="0 0 24 24"><g class="frame-container-wrapper"><g class="frame-container-blur"><g class="frame-container-shadows"><g class="fills"><rect width="24" height="24" class="frame-background" rx="0" ry="0"/></g><g class="frame-children"><rect width="24" height="24" fill="#000" class="fills" rx="4" ry="4"/><path fill="#fff" d="M9.8155 20.5h3.4897v-8.572h2.4353L16 9.0578h-2.6948v-1.635c0-.6767.139-.9441.806-.9441H16V3.5h-2.4167c-2.5972 0-3.7678 1.122-3.7678 3.2693v2.2885H8v2.9063h1.8155v8.536" class="fills"/></g></g></g></g></svg>
